SVG_Azure_All/Application Service Health check.svg

<?xml version="1.0" encoding="UTF-8" standalone="no"?>
<!-- Generated by Microsoft Visio, SVG Export Application Service Health check.svg Page-1 -->

<svg
   xmlns:dc="http://purl.org/dc/elements/1.1/"
   xmlns:cc="http://creativecommons.org/ns#"
   xmlns:rdf="http://www.w3.org/1999/02/22-rdf-syntax-ns#"
   xmlns:svg="http://www.w3.org/2000/svg"
   xmlns="http://www.w3.org/2000/svg"
   xmlns:sodipodi="http://sodipodi.sourceforge.net/DTD/sodipodi-0.dtd"
   xmlns:inkscape="http://www.inkscape.org/namespaces/inkscape"
   width="0.78328556in"
   height="0.74871957in"
   viewBox="0 0 56.396562 53.907527"
   xml:space="preserve"
   class="st5"
   version="1.1"
   id="svg43"
   sodipodi:docname="Application Service Health check.svg"
   style="font-size:12px;overflow:visible;color-interpolation-filters:sRGB;fill:none;fill-rule:evenodd;stroke-linecap:square;stroke-miterlimit:3"
   inkscape:version="0.92.5 (2060ec1f9f, 2020-04-08)"><metadata
   id="metadata47"><rdf:RDF><cc:Work
       rdf:about=""><dc:format>image/svg+xml</dc:format><dc:type
         rdf:resource="http://purl.org/dc/dcmitype/StillImage" /></cc:Work></rdf:RDF></metadata><sodipodi:namedview
   pagecolor="#ffffff"
   bordercolor="#666666"
   borderopacity="1"
   objecttolerance="10"
   gridtolerance="10"
   guidetolerance="10"
   inkscape:pageopacity="0"
   inkscape:pageshadow="2"
   inkscape:window-width="640"
   inkscape:window-height="480"
   id="namedview45"
   showgrid="false"
   inkscape:zoom="1.4517402"
   inkscape:cx="37.594114"
   inkscape:cy="35.924402"
   inkscape:window-x="0"
   inkscape:window-y="0"
   inkscape:window-maximized="0"
   inkscape:current-layer="svg43" />
	<style
   type="text/css"
   id="style2">
	<![CDATA[
		.st1 {fill:url(#grad0-6);stroke:none;stroke-linecap:butt;stroke-width:34}
		.st2 {fill:none}
		.st3 {stroke:none;stroke-linecap:butt;stroke-width:34}
		.st4 {fill:#ffffff}
		.st5 {fill:none;fill-rule:evenodd;font-size:12px;overflow:visible;stroke-linecap:square;stroke-miterlimit:3}
	]]>
	</style>

	<defs
   id="Patterns_And_Gradients">
		<linearGradient
   id="grad0-6"
   x1="0.14764317"
   y1="69.564429"
   x2="55.285789"
   y2="69.564429"
   gradientTransform="scale(1.022823,0.97768631)"
   gradientUnits="userSpaceOnUse">
			<stop
   offset="0"
   stop-color="#1988d9"
   stop-opacity="1"
   id="stop4" />
			<stop
   offset="0.22"
   stop-color="#218ddc"
   stop-opacity="1"
   id="stop6" />
			<stop
   offset="0.56"
   stop-color="#379ce5"
   stop-opacity="1"
   id="stop8" />
			<stop
   offset="0.9"
   stop-color="#54aef0"
   stop-opacity="1"
   id="stop10" />
		</linearGradient>
	</defs>
	<g
   id="g41"
   transform="translate(-34.003413,-33.996811)">
		<title
   id="title14">Page-1</title>
		<g
   id="group9233-1"
   transform="translate(33.8524,-34.0157)">
			<title
   id="title16">Application Service Health check</title>
			<g
   id="group9234-2">
				<title
   id="title18">Icon-general-4</title>
				<g
   id="shape9235-3">
					<title
   id="title20">Sheet.9235</title>
					<path
   d="M 28.36,121.92 C 55.5,102.28 56.43,90.82 56.53,87.23 56.69,82.21 56.03,69.1 42.76,68.06 A 14.1318,14.2773 -180 0 0 28.36,77.62 14.1981,14.3443 -180 0 0 13.8,68.06 C 0.7,69.1 0,82.21 0.17,87.23 c 0,3.59 1.06,15.05 28.19,34.69 z"
   class="st1"
   id="path22"
   inkscape:connector-curvature="0"
   style="fill:url(#grad0-6);stroke:none;stroke-width:34;stroke-linecap:butt" />
				</g>
				<g
   id="shape9236-7"
   transform="translate(0,-0.167574)">
					<title
   id="title25">Sheet.9236</title>
					<path
   d="M 56.53,87.4 C 56.69,82.37 56.03,69.27 42.76,68.23 A 14.1318,14.2773 -180 0 0 28.36,77.78 14.1981,14.3443 -180 0 0 13.8,68.23 C 0.7,69.27 0,82.37 0.17,87.4 c 0,3.59 0.79,14.88 27.96,34.52 z"
   class="st2"
   id="path27"
   inkscape:connector-curvature="0"
   style="fill:none" />
					<path
   d="M 56.53,87.4 C 56.69,82.37 56.03,69.27 42.76,68.23 A 14.1318,14.2773 -180 0 0 28.36,77.78 14.1981,14.3443 -180 0 0 13.8,68.23 C 0.7,69.27 0,82.37 0.17,87.4 c 0,3.59 0.79,14.88 27.96,34.52"
   class="st3"
   id="path29"
   inkscape:connector-curvature="0"
   style="stroke:none;stroke-width:34;stroke-linecap:butt" />
				</g>
				<g
   id="shape9237-10"
   transform="translate(4.34568,-12.9687)">
					<title
   id="title32">Sheet.9237</title>
					<path
   d="M 52.18,98.23 H 38.91 a 0.563944,0.569751 -180 0 0 -0.431251,0.234604 L 34.47,105.47 a 0.53077,0.536237 0 0 1 -0.895675,0 L 27.83,94.44 a 1.02837,1.03896 -180 0 0 -1.86,0 l -5.5,16.59 a 0.53077,0.536237 0 0 1 -0.962021,0 L 14.8,100 a 1.02837,1.03896 -180 0 0 -1.83,0 l -6.43,11.7 a 0.53077,0.536237 0 0 1 -0.431251,0.26812 L 0,111.97 a 43.1251,43.5692 -180 0 0 2.99,4.09 h 5.57 a 0.431251,0.435692 -180 0 0 0.431251,-0.26812 L 13,108.31 a 0.53077,0.536237 0 0 1 0.928848,0 L 19.44,121.25 a 1.02837,1.03896 -180 0 0 1.92,0 l 5.81,-17.43 a 0.497597,0.502722 0 0 1 0.928848,0 L 32.94,113.11 a 0.995195,1.00544 -180 0 0 1.75818,0 L 40.87,102.62 a 0.53077,0.536237 0 0 1 0.431251,-0.26812 L 52.02,102.35 Z"
   class="st4"
   id="path34"
   inkscape:connector-curvature="0"
   style="fill:#ffffff" />
					<path
   d="M 52.18,98.23 H 38.91 a 0.563944,0.569751 -180 0 0 -0.431251,0.234604 L 34.47,105.47 a 0.53077,0.536237 0 0 1 -0.895675,0 L 27.83,94.44 a 1.02837,1.03896 -180 0 0 -1.86,0 l -5.5,16.59 a 0.53077,0.536237 0 0 1 -0.962021,0 L 14.8,100 a 1.02837,1.03896 -180 0 0 -1.83,0 l -6.43,11.7 a 0.53077,0.536237 0 0 1 -0.431251,0.26812 L 0,111.97 a 43.1251,43.5692 -180 0 0 2.99,4.09 h 5.57 a 0.431251,0.435692 -180 0 0 0.431251,-0.26812 L 13,108.31 a 0.53077,0.536237 0 0 1 0.928848,0 L 19.44,121.25 a 1.02837,1.03896 -180 0 0 1.92,0 l 5.81,-17.43 a 0.497597,0.502722 0 0 1 0.928848,0 L 32.94,113.11 a 0.995195,1.00544 -180 0 0 1.75818,0 L 40.87,102.62 a 0.53077,0.536237 0 0 1 0.431251,-0.26812 L 52.02,102.35"
   class="st3"
   id="path36"
   inkscape:connector-curvature="0"
   style="stroke:none;stroke-width:34;stroke-linecap:butt" />
				</g>
			</g>
		</g>
	</g>
</svg>

<?xml version="1.0" encoding="UTF-8" standalone="no"?>
<!DOCTYPE svg PUBLIC "-//W3C//DTD SVG 1.1//EN" "http://www.w3.org/Graphics/SVG/1.1/DTD/svg11.dtd">
<!-- Generated by Microsoft Visio, SVG Export Application Service Health check.svg Page-1 -->
<svg xmlns="http://www.w3.org/2000/svg" xmlns:xlink="http://www.w3.org/1999/xlink" xmlns:ev="http://www.w3.org/2001/xml-events"
		width="1.72775in" height="1.69337in" viewBox="0 0 124.398 121.922" xml:space="preserve" color-interpolation-filters="sRGB"
		class="st5">
	<style type="text/css">
	<![CDATA[
		.st1 {fill:url(#grad0-6);stroke:none;stroke-linecap:butt;stroke-width:34}
		.st2 {fill:none}
		.st3 {stroke:none;stroke-linecap:butt;stroke-width:34}
		.st4 {fill:#ffffff}
		.st5 {fill:none;fill-rule:evenodd;font-size:12px;overflow:visible;stroke-linecap:square;stroke-miterlimit:3}
	]]>
	</style>

	<defs id="Patterns_And_Gradients">
		<linearGradient id="grad0-6" x1="0" y1="0" x2="1" y2="0" gradientTransform="rotate(-90 0.5 0.5)">
			<stop offset="0" stop-color="#1988d9" stop-opacity="1"/>
			<stop offset="0.22" stop-color="#218ddc" stop-opacity="1"/>
			<stop offset="0.56" stop-color="#379ce5" stop-opacity="1"/>
			<stop offset="0.9" stop-color="#54aef0" stop-opacity="1"/>
		</linearGradient>
	</defs>
	<g>
		<title>Page-1</title>
		<g id="group9038-1" transform="translate(33.8524,-34.0157)">
			<title>Application Service Health check</title>
			<g id="group9039-2">
				<title>Icon-general-4</title>
				<g id="shape9040-3">
					<title>Sheet.9040</title>
					<path d="M28.36 121.92 C55.5 102.28 56.43 90.82 56.53 87.23 C56.69 82.21 56.03 69.1 42.76 68.06 A14.1318 14.2773
								 -180 0 0 28.36 77.62 A14.1981 14.3443 -180 0 0 13.8 68.06 C0.7 69.1 0 82.21 0.17 87.23 C0.17 90.82
								 1.23 102.28 28.36 121.92 Z" class="st1"/>
				</g>
				<g id="shape9041-7" transform="translate(0,-0.167574)">
					<title>Sheet.9041</title>
					<path d="M56.53 87.4 C56.69 82.37 56.03 69.27 42.76 68.23 A14.1318 14.2773 -180 0 0 28.36 77.78 A14.1981 14.3443
								 -180 0 0 13.8 68.23 C0.7 69.27 0 82.37 0.17 87.4 C0.17 90.99 0.96 102.28 28.13 121.92 L56.53 87.4
								 Z" class="st2"/>
					<path d="M56.53 87.4 C56.69 82.37 56.03 69.27 42.76 68.23 A14.1318 14.2773 -180 0 0 28.36 77.78 A14.1981 14.3443
								 -180 0 0 13.8 68.23 C0.7 69.27 0 82.37 0.17 87.4 C0.17 90.99 0.96 102.28 28.13 121.92" class="st3"/>
				</g>
				<g id="shape9042-10" transform="translate(4.34568,-12.9687)">
					<title>Sheet.9042</title>
					<path d="M52.18 98.23 L38.91 98.23 a0.563944 0.569751 -180 0 0 -0.431251 0.234604 L34.47 105.47 a0.53077 0.536237
								 0 0 1 -0.895675 -7.10543E-14 L27.83 94.44 A1.02837 1.03896 -180 0 0 25.97 94.44 L20.47 111.03 a0.53077
								 0.536237 0 0 1 -0.962021 -4.26326E-14 L14.8 100 A1.02837 1.03896 -180 0 0 12.97 100 L6.54 111.7
								 a0.53077 0.536237 0 0 1 -0.431251 0.268118 L0 111.97 A43.1251 43.5692 -180 0 0 2.99 116.06 L8.56
								 116.06 a0.431251 0.435692 -180 0 0 0.431251 -0.268118 L13 108.31 a0.53077 0.536237 0 0 1 0.928848
								 0 L19.44 121.25 A1.02837 1.03896 -180 0 0 21.36 121.25 L27.17 103.82 a0.497597 0.502722 0 0 1 0.928848
								 -4.26326E-14 L32.94 113.11 a0.995195 1.00544 -180 0 0 1.75818 0 L40.87 102.62 a0.53077 0.536237
								 0 0 1 0.431251 -0.268118 L52.02 102.35 L52.18 98.23 Z" class="st4"/>
					<path d="M52.18 98.23 L38.91 98.23 a0.563944 0.569751 -180 0 0 -0.431251 0.234604 L34.47 105.47 a0.53077 0.536237
								 0 0 1 -0.895675 -7.10543E-14 L27.83 94.44 A1.02837 1.03896 -180 0 0 25.97 94.44 L20.47 111.03 a0.53077
								 0.536237 0 0 1 -0.962021 -4.26326E-14 L14.8 100 A1.02837 1.03896 -180 0 0 12.97 100 L6.54 111.7
								 a0.53077 0.536237 0 0 1 -0.431251 0.268118 L0 111.97 A43.1251 43.5692 -180 0 0 2.99 116.06 L8.56
								 116.06 a0.431251 0.435692 -180 0 0 0.431251 -0.268118 L13 108.31 a0.53077 0.536237 0 0 1 0.928848
								 0 L19.44 121.25 A1.02837 1.03896 -180 0 0 21.36 121.25 L27.17 103.82 a0.497597 0.502722 0 0 1 0.928848
								 -4.26326E-14 L32.94 113.11 a0.995195 1.00544 -180 0 0 1.75818 0 L40.87 102.62 a0.53077 0.536237
								 0 0 1 0.431251 -0.268118 L52.02 102.35" class="st3"/>
				</g>
			</g>
		</g>
	</g>
</svg>
